X: 1
T: Girl with the Blue Dress On
O: Denmark, England
R: shottish, reel
N: This is a Danish version of a well-known reel in the UK
Z: 1999 John Chambers <jc:trillian.mit.edu>
M: C|
L: 1/8
K: A
Ac \
| "A"e2 ec "E7"d2 dB | "A"c2 A2 Ac ec \
| "E7"B2E2 EG Bd | "A"c2 A2 A2 Ac \
| "A"e2 ec "E7"d2 dB | "A"c2 A2 Ac ec \
| "E7"B2E2 EG BG | "A"A2 {B}c2 A2 :|
|: z2 \
| "A"AB ce a3 g | "D"g2 f2 fe f2 \
| "E7"Bc de f3 e | "A"d2 c2 cB cB \
| "A"AB ce a3 g | "D"g2 f2 fe fe \
| "E7"d2 cB e3 G | B2 A2 "A"A2 :|
